img/icons/icon-files-2.svg

<svg width="41" height="40" viewBox="0 0 41 40" fill="none" xmlns="http://www.w3.org/2000/svg">
<path d="M3.18193 35H16.4686C16.9286 35 17.3019 34.6267 17.3019 34.1667C17.3019 33.7067 16.9286 33.3333 16.4686 33.3333H3.18193C2.86193 33.3333 2.60026 33.0733 2.60026 32.7517V2.24833C2.60026 1.92667 2.86193 1.66667 3.18193 1.66667H25.3519C25.6719 1.66667 25.9336 1.92667 25.9336 2.24833V8.985C25.9336 9.445 26.3069 9.81833 26.7669 9.81833C27.2269 9.81833 27.6003 9.445 27.6003 8.985V2.24833C27.6003 1.00833 26.5919 0 25.3519 0H3.18193C1.94193 0 0.933594 1.00833 0.933594 2.24833V32.7533C0.933594 33.9917 1.94193 35 3.18193 35Z" fill="#FEFEFE"/>
<path d="M40.6912 18.5775L34.0262 11.9125C33.9495 11.8358 33.8562 11.7741 33.7545 11.7308C33.6529 11.6891 33.5445 11.6675 33.4362 11.6675H21.5629C20.2979 11.6675 19.2695 12.6958 19.2695 13.9608V37.7075C19.2695 38.9725 20.2979 40.0008 21.5629 40.0008H38.6429C39.9079 40.0008 40.9362 38.9725 40.9362 37.7075V19.1675C40.9362 19.0591 40.9145 18.9508 40.8729 18.8491C40.8295 18.7475 40.7679 18.6541 40.6912 18.5775ZM34.2695 14.5125L38.0912 18.3341H34.2695V14.5125ZM39.2695 37.7075C39.2695 38.0525 38.9895 38.3342 38.6429 38.3342H21.5629C21.2162 38.3342 20.9362 38.0525 20.9362 37.7075V13.9608C20.9362 13.6158 21.2162 13.3341 21.5629 13.3341H32.6029V19.1675C32.6029 19.6275 32.9762 20.0008 33.4362 20.0008H39.2695V37.7075Z" fill="#FEFEFE"/>
<path d="M25.0977 23.6746C25.0977 24.1346 25.471 24.508 25.931 24.508H34.2643C34.7243 24.508 35.0977 24.1346 35.0977 23.6746C35.0977 23.2146 34.7243 22.8413 34.2643 22.8413H25.931C25.471 22.8413 25.0977 23.2146 25.0977 23.6746Z" fill="#FEFEFE"/>
<path d="M34.2643 27.3528H25.931C25.471 27.3528 25.0977 27.7261 25.0977 28.1861C25.0977 28.6461 25.471 29.0194 25.931 29.0194H34.2643C34.7243 29.0194 35.0977 28.6461 35.0977 28.1861C35.0977 27.7261 34.7243 27.3528 34.2643 27.3528Z" fill="#FEFEFE"/>
<path d="M34.2643 31.8591H25.931C25.471 31.8591 25.0977 32.2325 25.0977 32.6925C25.0977 33.1525 25.471 33.5258 25.931 33.5258H34.2643C34.7243 33.5258 35.0977 33.1525 35.0977 32.6925C35.0977 32.2325 34.7243 31.8591 34.2643 31.8591Z" fill="#FEFEFE"/>
</svg>

<svg width="41" height="40" fill="none" xmlns="http://www.w3.org/2000/svg"><path d="M3.182 35h13.287a.834.834 0 000-1.667H3.182a.582.582 0 01-.582-.581V2.248c0-.321.262-.581.582-.581h22.17c.32 0 .582.26.582.581v6.737a.834.834 0 001.666 0V2.248A2.25 2.25 0 0025.352 0H3.182A2.25 2.25 0 00.934 2.248v30.505A2.25 2.25 0 003.182 35z" fill="#FEFEFE"/><path d="M40.691 18.578l-6.665-6.665a.84.84 0 00-.59-.245H21.563a2.295 2.295 0 00-2.293 2.293v23.747A2.295 2.295 0 0021.563 40h17.08a2.295 2.295 0 002.293-2.293v-18.54a.842.842 0 00-.245-.59zm-6.422-4.066l3.822 3.822H34.27v-3.822zm5 23.196c0 .345-.28.626-.626.626h-17.08a.627.627 0 01-.627-.627V13.962c0-.345.28-.627.627-.627h11.04v5.834c0 .46.373.833.833.833h5.834v17.707z" fill="#FEFEFE"/><path d="M25.098 23.675c0 .46.373.833.833.833h8.333a.834.834 0 000-1.667h-8.333a.834.834 0 00-.833.834zm9.166 3.678h-8.333a.834.834 0 000 1.666h8.333a.834.834 0 000-1.666zm0 4.507h-8.333a.834.834 0 000 1.666h8.333a.834.834 0 000-1.667z" fill="#FEFEFE"/></svg>
